X:1
T:Anglais efter Erland Hansson
C:Erland Hansson
R:Anglais
Z:Patrik Mnsson, 2008-10-08
O:Skne
M:2/4
L:1/16
K:G
|: A2A2 F2D2 | A2A2 F2D2 | d2d2 B2b2 ABA2 G4 :| |: BABA G2G2 | BABA G2 G2 | d2d2 B2B2 | ABA2 G4 :|
